public/images/bgmessange.svg

<svg width="40" height="40" viewBox="0 0 40 40" fill="none" xmlns="http://www.w3.org/2000/svg">
<path fill-rule="evenodd" clip-rule="evenodd" d="M6.79928 22.9363C7.33532 21.5067 8.81626 20.5113 10.3574 20.5063L14.1911 20.509C15.2583 20.5055 16.2348 20.7976 16.9302 21.592L20.493 25.6487C21.2935 26.5631 21.648 27.9931 21.3171 29.1629C20.9862 30.3326 20.0221 31.2098 18.8543 31.5936L8.72494 35.1001C7.38441 35.5408 5.86761 35.0134 4.89045 34.0163C3.9133 33.0191 3.84955 31.5401 4.34004 30.232L6.79928 22.9363Z" fill="url(#paint0_linear_347_1449)"/>
<g filter="url(#filter0_bii_347_1449)">
<path d="M39.5973 17.1363C39.5973 26.5853 31.756 34.2452 22.0833 34.2452C12.4106 34.2452 4.56934 26.5853 4.56934 17.1363C4.56934 7.68727 12.4106 0.0273438 22.0833 0.0273438C31.756 0.0273438 39.5973 7.68727 39.5973 17.1363Z" fill="white" fill-opacity="0.03"/>
</g>
<g filter="url(#filter1_i_347_1449)">
<ellipse cx="22.2719" cy="17.3306" rx="1.71332" ry="1.74977" fill="white" fill-opacity="0.1"/>
</g>
<g filter="url(#filter2_i_347_1449)">
<ellipse cx="29.1259" cy="17.3306" rx="1.71332" ry="1.74977" fill="white" fill-opacity="0.1"/>
</g>
<g filter="url(#filter3_i_347_1449)">
<ellipse cx="15.4194" cy="17.3306" rx="1.71332" ry="1.74977" fill="white" fill-opacity="0.1"/>
</g>
<defs>
<filter id="filter0_bii_347_1449" x="-30.3333" y="-34.8753" width="104.833" height="104.023" filterUnits="userSpaceOnUse" color-interpolation-filters="sRGB">
<feFlood flood-opacity="0" result="BackgroundImageFix"/>
<feGaussianBlur in="BackgroundImageFix" stdDeviation="17.4513"/>
<feComposite in2="SourceAlpha" operator="in" result="effect1_backgroundBlur_347_1449"/>
<feBlend mode="normal" in="SourceGraphic" in2="effect1_backgroundBlur_347_1449" result="shape"/>
<feColorMatrix in="SourceAlpha" type="matrix" values="0 0 0 0 0 0 0 0 0 0 0 0 0 0 0 0 0 0 127 0" result="hardAlpha"/>
<feOffset dy="1.74513"/>
<feGaussianBlur stdDeviation="0.872567"/>
<feComposite in2="hardAlpha" operator="arithmetic" k2="-1" k3="1"/>
<feColorMatrix type="matrix" values="0 0 0 0 1 0 0 0 0 1 0 0 0 0 1 0 0 0 0.15 0"/>
<feBlend mode="normal" in2="shape" result="effect2_innerShadow_347_1449"/>
<feColorMatrix in="SourceAlpha" type="matrix" values="0 0 0 0 0 0 0 0 0 0 0 0 0 0 0 0 0 0 127 0" result="hardAlpha"/>
<feOffset/>
<feGaussianBlur stdDeviation="13.0885"/>
<feComposite in2="hardAlpha" operator="arithmetic" k2="-1" k3="1"/>
<feColorMatrix type="matrix" values="0 0 0 0 1 0 0 0 0 1 0 0 0 0 1 0 0 0 0.05 0"/>
<feBlend mode="normal" in2="effect2_innerShadow_347_1449" result="effect3_innerShadow_347_1449"/>
</filter>
<filter id="filter1_i_347_1449" x="20.5586" y="15.5808" width="3.42676" height="5.24465" filterUnits="userSpaceOnUse" color-interpolation-filters="sRGB">
<feFlood flood-opacity="0" result="BackgroundImageFix"/>
<feBlend mode="normal" in="SourceGraphic" in2="BackgroundImageFix" result="shape"/>
<feColorMatrix in="SourceAlpha" type="matrix" values="0 0 0 0 0 0 0 0 0 0 0 0 0 0 0 0 0 0 127 0" result="hardAlpha"/>
<feOffset dy="1.74513"/>
<feGaussianBlur stdDeviation="0.872567"/>
<feComposite in2="hardAlpha" operator="arithmetic" k2="-1" k3="1"/>
<feColorMatrix type="matrix" values="0 0 0 0 1 0 0 0 0 1 0 0 0 0 1 0 0 0 0.15 0"/>
<feBlend mode="normal" in2="shape" result="effect1_innerShadow_347_1449"/>
</filter>
<filter id="filter2_i_347_1449" x="27.4126" y="15.5808" width="3.42676" height="5.24465" filterUnits="userSpaceOnUse" color-interpolation-filters="sRGB">
<feFlood flood-opacity="0" result="BackgroundImageFix"/>
<feBlend mode="normal" in="SourceGraphic" in2="BackgroundImageFix" result="shape"/>
<feColorMatrix in="SourceAlpha" type="matrix" values="0 0 0 0 0 0 0 0 0 0 0 0 0 0 0 0 0 0 127 0" result="hardAlpha"/>
<feOffset dy="1.74513"/>
<feGaussianBlur stdDeviation="0.872567"/>
<feComposite in2="hardAlpha" operator="arithmetic" k2="-1" k3="1"/>
<feColorMatrix type="matrix" values="0 0 0 0 1 0 0 0 0 1 0 0 0 0 1 0 0 0 0.15 0"/>
<feBlend mode="normal" in2="shape" result="effect1_innerShadow_347_1449"/>
</filter>
<filter id="filter3_i_347_1449" x="13.7061" y="15.5808" width="3.42676" height="5.24465" filterUnits="userSpaceOnUse" color-interpolation-filters="sRGB">
<feFlood flood-opacity="0" result="BackgroundImageFix"/>
<feBlend mode="normal" in="SourceGraphic" in2="BackgroundImageFix" result="shape"/>
<feColorMatrix in="SourceAlpha" type="matrix" values="0 0 0 0 0 0 0 0 0 0 0 0 0 0 0 0 0 0 127 0" result="hardAlpha"/>
<feOffset dy="1.74513"/>
<feGaussianBlur stdDeviation="0.872567"/>
<feComposite in2="hardAlpha" operator="arithmetic" k2="-1" k3="1"/>
<feColorMatrix type="matrix" values="0 0 0 0 1 0 0 0 0 1 0 0 0 0 1 0 0 0 0.15 0"/>
<feBlend mode="normal" in2="shape" result="effect1_innerShadow_347_1449"/>
</filter>
<linearGradient id="paint0_linear_347_1449" x1="0" y1="29.1902" x2="20.5303" y2="20.9831" gradientUnits="userSpaceOnUse">
<stop stop-color="white" stop-opacity="0.2"/>
<stop offset="1" stop-color="white"/>
</linearGradient>
</defs>
</svg>

<svg width="40" height="40" fill="none" xmlns="http://www.w3.org/2000/svg"><path fill-rule="evenodd" clip-rule="evenodd" d="M6.8 22.936c.535-1.43 2.016-2.425 3.557-2.43l3.834.003c1.067-.003 2.044.289 2.74 1.083l3.562 4.057c.8.914 1.155 2.344.824 3.514-.33 1.17-1.295 2.047-2.463 2.43L8.724 35.1c-1.34.44-2.856-.087-3.834-1.084-.977-.997-1.04-2.476-.55-3.784l2.46-7.296Z" fill="url(#a)"/><g filter="url(#b)"><path d="M39.597 17.136c0 9.45-7.841 17.11-17.514 17.11-9.672 0-17.514-7.66-17.514-17.11C4.57 7.687 12.411.027 22.083.027c9.673 0 17.514 7.66 17.514 17.11Z" fill="#fff" fill-opacity=".03"/></g><g filter="url(#c)"><ellipse cx="22.272" cy="17.331" rx="1.713" ry="1.75" fill="#fff" fill-opacity=".1"/></g><g filter="url(#d)"><ellipse cx="29.126" cy="17.331" rx="1.713" ry="1.75" fill="#fff" fill-opacity=".1"/></g><g filter="url(#e)"><ellipse cx="15.419" cy="17.331" rx="1.713" ry="1.75" fill="#fff" fill-opacity=".1"/></g><defs><filter id="b" x="-30.333" y="-34.875" width="104.833" height="104.023" filterUnits="userSpaceOnUse" color-interpolation-filters="sRGB"><feFlood flood-opacity="0" result="BackgroundImageFix"/><feGaussianBlur in="BackgroundImageFix" stdDeviation="17.451"/><feComposite in2="SourceAlpha" operator="in" result="effect1_backgroundBlur_347_1449"/><feBlend in="SourceGraphic" in2="effect1_backgroundBlur_347_1449" result="shape"/><feColorMatrix in="SourceAlpha" values="0 0 0 0 0 0 0 0 0 0 0 0 0 0 0 0 0 0 127 0" result="hardAlpha"/><feOffset dy="1.745"/><feGaussianBlur stdDeviation=".873"/><feComposite in2="hardAlpha" operator="arithmetic" k2="-1" k3="1"/><feColorMatrix values="0 0 0 0 1 0 0 0 0 1 0 0 0 0 1 0 0 0 0.15 0"/><feBlend in2="shape" result="effect2_innerShadow_347_1449"/><feColorMatrix in="SourceAlpha" values="0 0 0 0 0 0 0 0 0 0 0 0 0 0 0 0 0 0 127 0" result="hardAlpha"/><feOffset/><feGaussianBlur stdDeviation="13.088"/><feComposite in2="hardAlpha" operator="arithmetic" k2="-1" k3="1"/><feColorMatrix values="0 0 0 0 1 0 0 0 0 1 0 0 0 0 1 0 0 0 0.05 0"/><feBlend in2="effect2_innerShadow_347_1449" result="effect3_innerShadow_347_1449"/></filter><filter id="c" x="20.559" y="15.581" width="3.427" height="5.245" filterUnits="userSpaceOnUse" color-interpolation-filters="sRGB"><feFlood flood-opacity="0" result="BackgroundImageFix"/><feBlend in="SourceGraphic" in2="BackgroundImageFix" result="shape"/><feColorMatrix in="SourceAlpha" values="0 0 0 0 0 0 0 0 0 0 0 0 0 0 0 0 0 0 127 0" result="hardAlpha"/><feOffset dy="1.745"/><feGaussianBlur stdDeviation=".873"/><feComposite in2="hardAlpha" operator="arithmetic" k2="-1" k3="1"/><feColorMatrix values="0 0 0 0 1 0 0 0 0 1 0 0 0 0 1 0 0 0 0.15 0"/><feBlend in2="shape" result="effect1_innerShadow_347_1449"/></filter><filter id="d" x="27.413" y="15.581" width="3.427" height="5.245" filterUnits="userSpaceOnUse" color-interpolation-filters="sRGB"><feFlood flood-opacity="0" result="BackgroundImageFix"/><feBlend in="SourceGraphic" in2="BackgroundImageFix" result="shape"/><feColorMatrix in="SourceAlpha" values="0 0 0 0 0 0 0 0 0 0 0 0 0 0 0 0 0 0 127 0" result="hardAlpha"/><feOffset dy="1.745"/><feGaussianBlur stdDeviation=".873"/><feComposite in2="hardAlpha" operator="arithmetic" k2="-1" k3="1"/><feColorMatrix values="0 0 0 0 1 0 0 0 0 1 0 0 0 0 1 0 0 0 0.15 0"/><feBlend in2="shape" result="effect1_innerShadow_347_1449"/></filter><filter id="e" x="13.706" y="15.581" width="3.427" height="5.245" filterUnits="userSpaceOnUse" color-interpolation-filters="sRGB"><feFlood flood-opacity="0" result="BackgroundImageFix"/><feBlend in="SourceGraphic" in2="BackgroundImageFix" result="shape"/><feColorMatrix in="SourceAlpha" values="0 0 0 0 0 0 0 0 0 0 0 0 0 0 0 0 0 0 127 0" result="hardAlpha"/><feOffset dy="1.745"/><feGaussianBlur stdDeviation=".873"/><feComposite in2="hardAlpha" operator="arithmetic" k2="-1" k3="1"/><feColorMatrix values="0 0 0 0 1 0 0 0 0 1 0 0 0 0 1 0 0 0 0.15 0"/><feBlend in2="shape" result="effect1_innerShadow_347_1449"/></filter><linearGradient id="a" x1="0" y1="29.19" x2="20.53" y2="20.983" gradientUnits="userSpaceOnUse"><stop stop-color="#fff" stop-opacity=".2"/><stop offset="1" stop-color="#fff"/></linearGradient></defs></svg>
